**harm	**harte	**timestamp	**phrase	**leadinstrument	**kern
*M12/8	*M12/8	*	*	*	*
*E:	*E:	*	*	*	*E:
1r;	N	0	.	r	1r;
1r;	N	0.789	.	r	1r;
=1	=1	=1	=1	=1	=1
*>A_intro	*>A_intro	*>A_intro	*>A_intro	*>A_intro	*>A_intro
1.V+	B:aug	11.447	newline	r	1B 1dd# 1ff##
1r;	N	14.211	.	r	1r;
=2	=2	=2	=2	=2	=2
*>B_chorus	*>B_chorus	*>B_chorus	*>B_chorus	*>B_chorus	*>B_chorus
2.ii7	F#:min7	16.974	newline	voice	2F# 2a 2cc# 2ee
2.V7	B:7	19.089	.	voice	2B 2dd# 2ff# 2aa
=3	=3	=3	=3	=3	=3
2.ii7	F#:min7	21.204	.	voice	2F# 2a 2cc# 2ee
2.V7	B:7	23.319	.	voice	2B 2dd# 2ff# 2aa
=4	=4	=4	=4	=4	=4
2.I	E:maj6	25.434	.	voice	2E 2g# 2b
2.V7	B:13	27.549	.	voice	2B 2dd# 2ff# 2aa
=5	=5	=5	=5	=5	=5
2.I	E:maj6	29.664	.	voice	2E 2g# 2b
2.VI7b	C#:7(b9)/3	31.78	.	voice	2c# 2E# 2g# 2b
=6	=6	=6	=6	=6	=6
2.ii7	F#:min7	33.895	newline	voice	2F# 2a 2cc# 2ee
2.V7	B:7	35.979	.	voice	2B 2dd# 2ff# 2aa
=7	=7	=7	=7	=7	=7
2.ii7	F#:min7	38.064	.	voice	2F# 2a 2cc# 2ee
2.V7	B:7	40.149	.	voice	2B 2dd# 2ff# 2aa
=8	=8	=8	=8	=8	=8
2.I	E:maj6	42.234	.	voice	2E 2g# 2b
2.V7	B:13	44.319	.	voice	2B 2dd# 2ff# 2aa
=9	=9	=9	=9	=9	=9
1.I7	E:maj7	46.404	.	voice	1E 1g# 1b 1dd#
=10	=10	=10	=10	=10	=10
*>C_verse	*>C_verse	*>C_verse	*>C_verse	*>C_verse	*>C_verse
1.iii	G#:min	50.573	newline	voice	1G# 1b 1dd#
=11	=11	=11	=11	=11	=11
1.vi	C#:min	54.737	.	voice	1C# 1e 1g#
=12	=12	=12	=12	=12	=12
1.iii	G#:min	58.9	.	voice	1G# 1b 1dd#
=13	=13	=13	=13	=13	=13
1.vi	C#:min	63.064	.	voice	1C# 1e 1g#
=14	=14	=14	=14	=14	=14
1.iii	G#:min	67.227	newline	voice	1G# 1b 1dd#
=15	=15	=15	=15	=15	=15
1.IV	A:maj	71.526	.	voice	1A 1cc# 1ee
=16	=16	=16	=16	=16	=16
1.V	B:maj	75.824	.	voice	1B 1dd# 1ff#
=17	=17	=17	=17	=17	=17
1.V	B:maj	80.123	.	voice	1B 1dd# 1ff#
=18	=18	=18	=18	=18	=18
*>B_chorus	*>B_chorus	*>B_chorus	*>B_chorus	*>B_chorus	*>B_chorus
2.ii7	F#:min7	84.421	newline	voice	2F# 2a 2cc# 2ee
2.V7	B:7	86.512	.	voice	2B 2dd# 2ff# 2aa
=19	=19	=19	=19	=19	=19
2.ii7	F#:min7	88.602	.	voice	2F# 2a 2cc# 2ee
2.V7	B:7	90.693	.	voice	2B 2dd# 2ff# 2aa
=20	=20	=20	=20	=20	=20
2.I	E:maj6	92.783	.	voice	2E 2g# 2b
2.V7	B:13	94.874	.	voice	2B 2dd# 2ff# 2aa
=21	=21	=21	=21	=21	=21
2.I	E:maj6	96.964	.	voice	2E 2g# 2b
2.VI7b	C#:7(b9)/3	99.055	.	voice	2c# 2E# 2g# 2b
=22	=22	=22	=22	=22	=22
2.ii7	F#:min7	101.146	newline	voice	2F# 2a 2cc# 2ee
2.V7	B:7	103.218	.	voice	2B 2dd# 2ff# 2aa
=23	=23	=23	=23	=23	=23
2.ii7	F#:min7	105.291	.	voice	2F# 2a 2cc# 2ee
2.V7	B:7	107.363	.	voice	2B 2dd# 2ff# 2aa
=24	=24	=24	=24	=24	=24
2.I	E:maj6	109.436	.	voice	2E 2g# 2b
2.V7	B:13	111.508	.	voice	2B 2dd# 2ff# 2aa
=25	=25	=25	=25	=25	=25
1.I7	E:maj7	113.581	.	voice	1E 1g# 1b 1dd#
=26	=26	=26	=26	=26	=26
*>C_verse	*>C_verse	*>C_verse	*>C_verse	*>C_verse	*>C_verse
1.iii	G#:min	117.726	newline	voice	1G# 1b 1dd#
=27	=27	=27	=27	=27	=27
1.vi	C#:min	121.874	.	voice	1C# 1e 1g#
=28	=28	=28	=28	=28	=28
1.iii	G#:min	126.022	.	voice	1G# 1b 1dd#
=29	=29	=29	=29	=29	=29
1.vi	C#:min	130.17	.	voice	1C# 1e 1g#
=30	=30	=30	=30	=30	=30
1.iii	G#:min	134.318	newline	voice	1G# 1b 1dd#
=31	=31	=31	=31	=31	=31
1.IV	A:maj	138.513	.	voice	1A 1cc# 1ee
=32	=32	=32	=32	=32	=32
1.V7	B:7	142.708	.	voice	1B 1dd# 1ff# 1aa
=33	=33	=33	=33	=33	=33
1.V	B:maj	146.904	.	voice	1B 1dd# 1ff#
=34	=34	=34	=34	=34	=34
*>B2_chorus	*>B2_chorus	*>B2_chorus	*>B2_chorus	*>B2_chorus	*>B2_chorus
2.ii7	F#:min7	151.099	newline	voice	2F# 2a 2cc# 2ee
2.V7	B:7	153.175	.	voice	2B 2dd# 2ff# 2aa
=35	=35	=35	=35	=35	=35
2.ii7	F#:min7	155.252	.	voice	2F# 2a 2cc# 2ee
2.V7	B:7	157.329	.	voice	2B 2dd# 2ff# 2aa
=36	=36	=36	=36	=36	=36
2.I	E:maj6	159.406	.	voice	2E 2g# 2b
2.V7	B:13	161.482	.	voice	2B 2dd# 2ff# 2aa
=37	=37	=37	=37	=37	=37
2.I	E:maj6	163.559	.	voice	2E 2g# 2b
2.VI7b	C#:7(b9)/3	165.636	.	voice	2c# 2E# 2g# 2b
=38	=38	=38	=38	=38	=38
2.ii7	F#:min7	167.712	newline	voice	2F# 2a 2cc# 2ee
2.V7	B:7	169.772	.	voice	2B 2dd# 2ff# 2aa
=39	=39	=39	=39	=39	=39
2.ii7	F#:min7	171.832	.	voice	2F# 2a 2cc# 2ee
2.V7	B:7	173.891	.	voice	2B 2dd# 2ff# 2aa
=40	=40	=40	=40	=40	=40
2.I	E:maj6	175.951	.	voice	2E 2g# 2b
2.V7	B:13	178.011	.	voice	2B 2dd# 2ff# 2aa
=41	=41	=41	=41	=41	=41
2.I	E:maj6	180.071	.	voice	2E 2g# 2b
2.VI7b	C#:7(b9)/3	182.13	.	voice	2c# 2E# 2g# 2b
=42	=42	=42	=42	=42	=42
2.ii7	F#:min7	184.19	newline	voice	2F# 2a 2cc# 2ee
2.V7	B:7	186.256	.	voice	2B 2dd# 2ff# 2aa
=43	=43	=43	=43	=43	=43
2.ii7	F#:min7	188.321	.	voice	2F# 2a 2cc# 2ee
2.V7	B:7	190.387	.	voice	2B 2dd# 2ff# 2aa
=44	=44	=44	=44	=44	=44
2.I	E:maj6	192.452	.	voice	2E 2g# 2b
2.V7	B:13	194.518	.	voice	2B 2dd# 2ff# 2aa
=45	=45	=45	=45	=45	=45
2.I	E:maj6	196.583	.	voice	2E 2g# 2b
2.VI7b	C#:7(b9)/3	198.649	.	voice	2c# 2E# 2g# 2b
=46	=46	=46	=46	=46	=46
2.ii7	F#:min7	200.715	newline	voice	2F# 2a 2cc# 2ee
2.V7	B:7	202.782	.	voice	2B 2dd# 2ff# 2aa
=47	=47	=47	=47	=47	=47
2.ii7	F#:min7	204.849	.	voice	2F# 2a 2cc# 2ee
2.V7	B:7	206.917	.	voice	2B 2dd# 2ff# 2aa
=48	=48	=48	=48	=48	=48
2.I	E:maj6	208.984	.	voice	2E 2g# 2b
2.V7	B:13	211.051	.	voice	2B 2dd# 2ff# 2aa
=49	=49	=49	=49	=49	=49
2.I	E:maj6	213.119	.	voice	2E 2g# 2b
2.VI7b	C#:7(b9)/3	215.186	.	voice	2c# 2E# 2g# 2b
=50	=50	=50	=50	=50	=50
*>B2_outro	*>B2_outro	*>B2_outro	*>B2_outro	*>B2_outro	*>B2_outro
2.ii7	F#:min7	217.253	newline	voice	2F# 2a 2cc# 2ee
2.V7	B:7	219.296	.	voice	2B 2dd# 2ff# 2aa
=51	=51	=51	=51	=51	=51
2.ii7	F#:min7	221.339	.	voice	2F# 2a 2cc# 2ee
2.V7	B:7	223.382	.	voice	2B 2dd# 2ff# 2aa
=52	=52	=52	=52	=52	=52
2.I	E:maj6	225.425	.	voice	2E 2g# 2b
2.V7	B:13	227.468	.	voice	2B 2dd# 2ff# 2aa
=53	=53	=53	=53	=53	=53
2.I	E:maj6	229.51	.	voice	2E 2g# 2b
2.VI7b	C#:7(b9)/3	231.553	.	voice	2c# 2E# 2g# 2b
=54	=54	=54	=54	=54	=54
2.ii7	F#:min7	233.596	newline	voice	2F# 2a 2cc# 2ee
2.V7	B:7	235.641	.	voice	2B 2dd# 2ff# 2aa
=55	=55	=55	=55	=55	=55
1.I7	E:maj7	237.687	.	voice	1E 1g# 1b 1dd#
1r;	N	241.778	.	r	1r;
1r;	N	260.528	.	r	1r;
1r;	N	263.314	.	r	1r;
1r;	N	266.867	.	r	1r;
*-	*-	*-	*-	*-	*-
!!!OTL: Tell It Like It Is
!!!COC: Aaron Neville
!!!BillboardChartDate: 1966/12/10
!!!BillboardPeak: 2
!!!BillboardWeeksOnChart: 14
!!!SampleTargetRank: 52
!!!SampleActualRank: 51
!!!SampleID#: 0691
!!!RDF**harmony: **recip + pitch class of root + harmonic quality
!!!RDF**harte: Chris Harte's syntax, used by MIREX
!!!RDF**phrase: newline = linebreak in original McGill transcription
!!!RDF**timestamp: McGill audio timestamp in seconds
!!!RDF**leadinstrument: original McGill primary instrumentation annotation
!!!RDT: 2017/01/12/
!!!ENC: Nathaniel Condit-Schultz
!!!EST: Awating manual error checking and editing.
